public/assets/facebook.svg

<?xml version="1.0" encoding="utf-8"?><!-- Uploaded to: SVG Repo, www.svgrepo.com, Generator: SVG Repo Mixer Tools -->
<svg width="800px" height="800px" viewBox="0 0 24 24" fill="none" xmlns="http://www.w3.org/2000/svg">
<path fill-rule="evenodd" clip-rule="evenodd" d="M20 1C21.6569 1 23 2.34315 23 4V20C23 21.6569 21.6569 23 20 23H4C2.34315 23 1 21.6569 1 20V4C1 2.34315 2.34315 1 4 1H20ZM20 3C20.5523 3 21 3.44772 21 4V20C21 20.5523 20.5523 21 20 21H15V13.9999H17.0762C17.5066 13.9999 17.8887 13.7245 18.0249 13.3161L18.4679 11.9871C18.6298 11.5014 18.2683 10.9999 17.7564 10.9999H15V8.99992C15 8.49992 15.5 7.99992 16 7.99992H18C18.5523 7.99992 19 7.5522 19 6.99992V6.31393C19 5.99091 18.7937 5.7013 18.4813 5.61887C17.1705 5.27295 16 5.27295 16 5.27295C13.5 5.27295 12 6.99992 12 8.49992V10.9999H10C9.44772 10.9999 9 11.4476 9 11.9999V12.9999C9 13.5522 9.44771 13.9999 10 13.9999H12V21H4C3.44772 21 3 20.5523 3 20V4C3 3.44772 3.44772 3 4 3H20Z" fill="#0F0F0F"/>
</svg>

<svg xmlns="http://www.w3.org/2000/svg" width="800" height="800" viewBox="0 0 24 24" fill="none" xmlns:v="https://vecta.io/nano"><path fill-rule="evenodd" d="M20 1a3 3 0 0 1 3 3v16a3 3 0 0 1-3 3H4a3 3 0 0 1-3-3V4a3 3 0 0 1 3-3h16zm0 2a1 1 0 0 1 1 1v16a1 1 0 0 1-1 1h-5v-7h2.076a1 1 0 0 0 .949-.684l.443-1.329a.75.75 0 0 0-.712-.987H15V9a1.08 1.08 0 0 1 1-1h2a1 1 0 0 0 1-1v-.686a.71.71 0 0 0-.519-.695C17.171 5.273 16 5.273 16 5.273c-2.5 0-4 1.727-4 3.227V11h-2a1 1 0 0 0-1 1v1a1 1 0 0 0 1 1h2v7H4a1 1 0 0 1-1-1V4a1 1 0 0 1 1-1h16z" fill="#0f0f0f"/></svg>
